src/assets/icons/slack.svg

<svg width="14" height="14" viewBox="0 0 14 14" fill="none" xmlns="http://www.w3.org/2000/svg">
<g id="slack">
<g clip-path="url(#clip0_156_4472)">
<path id="Vector" d="M2.94 8.84624C2.94 9.65124 2.275 10.3162 1.47 10.3162C0.665 10.3162 0 9.65124 0 8.84624C0 8.04124 0.665 7.37624 1.47 7.37624H2.94V8.84624ZM3.68375 8.84624C3.68375 8.04124 4.34875 7.37624 5.15375 7.37624C5.95875 7.37624 6.62375 8.04124 6.62375 8.84624V12.53C6.62375 13.335 5.95875 14 5.15375 14C4.34875 14 3.68375 13.335 3.68375 12.53V8.84624ZM5.15375 2.93999C4.34875 2.93999 3.68375 2.27499 3.68375 1.46999C3.68375 0.664994 4.34875 0 5.15375 0C5.95875 0 6.62375 0.664994 6.62375 1.46999V2.93999H5.15375ZM5.15375 3.68377C5.95875 3.68377 6.62375 4.34876 6.62375 5.15376C6.62375 5.95876 5.95875 6.62376 5.15375 6.62376H1.47C0.65625 6.62376 0 5.95876 0 5.15376C0 4.34876 0.665 3.68377 1.47 3.68377H5.15375ZM11.06 5.15376C11.06 4.34876 11.725 3.68377 12.53 3.68377C13.335 3.68377 14 4.34876 14 5.15376C14 5.95876 13.335 6.62376 12.53 6.62376H11.06V5.15376ZM10.3163 5.15376C10.3163 5.95876 9.65125 6.62376 8.84625 6.62376C8.04125 6.62376 7.37625 5.95876 7.37625 5.15376V1.46999C7.37625 0.656244 8.04125 0 8.84625 0C9.65125 0 10.3163 0.664994 10.3163 1.46999V5.15376ZM8.84625 11.06C9.65125 11.06 10.3163 11.725 10.3163 12.53C10.3163 13.335 9.65125 14 8.84625 14C8.04125 14 7.37625 13.335 7.37625 12.53V11.06H8.84625ZM8.84625 10.3162C8.04125 10.3162 7.37625 9.65124 7.37625 8.84624C7.37625 8.04124 8.04125 7.37624 8.84625 7.37624H12.53C13.335 7.37624 14 8.04124 14 8.84624C14 9.65124 13.335 10.3162 12.53 10.3162H8.84625Z" fill="black"/>
</g>
</g>
<defs>
<clipPath id="clip0_156_4472">
<rect width="14" height="14" fill="white"/>
</clipPath>
</defs>
</svg>

<svg xmlns="http://www.w3.org/2000/svg" fill="none" viewBox="0 0 14 14"><g clip-path="url(#a)"><path fill="#000" d="M2.94 8.846c0 .805-.665 1.47-1.47 1.47S0 9.651 0 8.846s.665-1.47 1.47-1.47h1.47zm.744 0c0-.805.665-1.47 1.47-1.47s1.47.665 1.47 1.47v3.684c0 .805-.665 1.47-1.47 1.47s-1.47-.665-1.47-1.47zm1.47-5.906c-.805 0-1.47-.665-1.47-1.47S4.349 0 5.154 0s1.47.665 1.47 1.47v1.47zm0 .744c.805 0 1.47.665 1.47 1.47s-.665 1.47-1.47 1.47H1.47C.656 6.624 0 5.959 0 5.154s.665-1.47 1.47-1.47zm5.906 1.47c0-.805.665-1.47 1.47-1.47S14 4.349 14 5.154s-.665 1.47-1.47 1.47h-1.47zm-.744 0c0 .805-.665 1.47-1.47 1.47s-1.47-.665-1.47-1.47V1.47c0-.814.665-1.47 1.47-1.47s1.47.665 1.47 1.47zm-1.47 5.906c.805 0 1.47.665 1.47 1.47S9.651 14 8.846 14s-1.47-.665-1.47-1.47v-1.47zm0-.744c-.805 0-1.47-.665-1.47-1.47s.665-1.47 1.47-1.47h3.684c.805 0 1.47.665 1.47 1.47s-.665 1.47-1.47 1.47z"/></g><defs><clipPath id="a"><path fill="#fff" d="M0 0h14v14H0z"/></clipPath></defs></svg>
